.local/share/icons/Gruvbox-Plus-Dark/actions/16/vm-snapshot-current.svg

<svg xmlns="http://www.w3.org/2000/svg" width="16" height="16" version="1.1">
 <defs>
  <style id="current-color-scheme" type="text/css">
   .ColorScheme-Text { color:#555555; } .ColorScheme-Highlight { color:#4285f4; } .ColorScheme-NeutralText { color:#ff9800; } .ColorScheme-PositiveText { color:#4caf50; } .ColorScheme-NegativeText { color:#f44336; }
  </style>
 </defs>
 <path style="fill:currentColor" class="ColorScheme-Text" d="m 4.5,-2e-7 c -1.367868,0 -2.5,1.1321324 -2.5,2.5 V 5.050781 C 0.866938,5.2861796 0,6.3031156 0,7.4999998 V 13.5 C 0,14.867868 1.132132,16 2.5,16 h 6 c 1.1968842,0 2.21382,-0.866938 2.449219,-2 H 13.5 C 14.867868,14 16,12.867868 16,11.5 V 5.4999998 c 0,-1.3678676 -1.132132,-2.5 -2.5,-2.5 H 13 v -0.5 c 0,-1.3678676 -1.132132,-2.5 -2.5,-2.5 z m 0,2 h 6 c 0.294463,0 0.5,0.2055368 0.5,0.5 v 0.5 H 7.5 c -1.1968842,0 -2.2138202,0.8669384 -2.4492188,2 H 4 v -2.5 c 0,-0.2944632 0.2055368,-0.5 0.5,-0.5 z m 4,3 h 5 c 0.294463,0 0.5,0.2055368 0.5,0.5 V 11.5 C 14,11.794463 13.794463,12 13.5,12 H 11 V 7.4999998 c 0,-1.3678676 -1.1321324,-2.5 -2.5,-2.5 z m -6,2 H 5 7 8.5 c 0.2944632,0 0.5,0.2055368 0.5,0.5 V 13.5 C 9,13.794463 8.7944632,14 8.5,14 h -6 C 2.205537,14 2,13.794463 2,13.5 V 7.4999998 c 0,-0.2944632 0.205537,-0.5 0.5,-0.5 z"/>
</svg>

<svg width="16" height="16" version="1.1" xmlns="http://www.w3.org/2000/svg">
  <defs>
    <style id="current-color-scheme" type="text/css">.ColorScheme-Text { color:#ebdbb2; } .ColorScheme-Highlight { color:#458588; }</style>
  </defs>
  <path class="ColorScheme-Text" d="m4.5-2e-7c-1.368 0-2.5 1.132-2.5 2.5v2.551c-1.133 0.2354-2 1.252-2 2.449v6c0 1.368 1.132 2.5 2.5 2.5h6c1.197 0 2.214-0.8669 2.449-2h2.551c1.368 0 2.5-1.132 2.5-2.5v-6c0-1.368-1.132-2.5-2.5-2.5h-0.5v-0.5c0-1.368-1.132-2.5-2.5-2.5zm0 2h6c0.2945 0 0.5 0.2055 0.5 0.5v0.5h-3.5c-1.197 0-2.214 0.8669-2.449 2h-1.051v-2.5c0-0.2945 0.2055-0.5 0.5-0.5zm4 3h5c0.2945 0 0.5 0.2055 0.5 0.5v6c0 0.2945-0.2055 0.5-0.5 0.5h-2.5v-4.5c0-1.368-1.132-2.5-2.5-2.5zm-6 2h6c0.2945 0 0.5 0.2055 0.5 0.5v6c0 0.2945-0.2055 0.5-0.5 0.5h-6c-0.2945 0-0.5-0.2055-0.5-0.5v-6c0-0.2945 0.2055-0.5 0.5-0.5z" fill="currentColor"/>
</svg>
